svg/fluentui-system-icons/ic_fluent_send_copy_24_filled.svg

<svg width="24" height="24" viewBox="0 0 24 24" fill="none" xmlns="http://www.w3.org/2000/svg">
<path d="M20.0044 11.5C20.5172 11.5 20.94 11.886 20.9978 12.3834L21.0045 12.5V17.0001C21.0045 19.9636 18.6606 22.3796 15.7256 22.4955L15.5044 22.4999L8.24956 22.4997C7.03601 22.4997 6.02439 21.6349 5.79729 20.488L8.14442 20.4886L8.19622 20.4969L8.24965 20.4997L15.5044 20.4999C17.369 20.5 18.893 19.0421 18.9986 17.204L19.0045 17.0125L19.0044 12.5C19.0044 11.9477 19.4521 11.5 20.0044 11.5ZM16.9984 9.48663C17.5112 9.48663 17.9339 9.87267 17.9917 10.37L17.9984 10.4866V16.9876C17.9984 18.3131 16.9669 19.3977 15.6628 19.4823L15.4984 19.4876H5.49805C4.17256 19.4876 3.08801 18.4561 3.00336 17.152L2.99805 16.9876V10.4984C2.99805 9.94609 3.44576 9.49838 3.99805 9.49838C4.51088 9.49838 4.93355 9.88442 4.99132 10.3818L4.99805 10.4984V16.9876C4.99805 17.2331 5.17492 17.4372 5.40817 17.4796L5.49805 17.4876H15.4984C15.7439 17.4876 15.948 17.3108 15.9903 17.0775L15.9984 16.9876V10.4866C15.9984 9.93435 16.4461 9.48663 16.9984 9.48663ZM6.29228 5.79313L9.78992 2.29313C10.1503 1.93253 10.7175 1.90461 11.1099 2.2095L11.2041 2.29266L14.7065 5.79266C15.0971 6.18305 15.0974 6.81621 14.707 7.20687C14.3466 7.56747 13.7794 7.59539 13.387 7.2905L13.2928 7.20734L11.499 5.415L11.4996 14.2549C11.4996 14.7678 11.1136 15.1905 10.6162 15.2482L10.4996 15.2549C9.98679 15.2549 9.56412 14.8689 9.50635 14.3716L9.49962 14.2549L9.49905 5.412L7.70697 7.20687C7.34661 7.56747 6.77938 7.59539 6.38699 7.2905L6.29275 7.20734C5.93215 6.84698 5.90423 6.27976 6.20912 5.88737L6.29228 5.79313L9.78992 2.29313L6.29228 5.79313Z" fill="#212121"/>
</svg>

<svg xmlns="http://www.w3.org/2000/svg" width="24" height="24"><path d="M20.004 11.5a1 1 0 0 1 .994.883l.006.117V17a5.5 5.5 0 0 1-5.278 5.495l-.222.005H8.25a2.5 2.5 0 0 1-2.453-2.012h2.347l.052.009.054.003h7.254A3.5 3.5 0 0 0 19 17.204l.006-.192V12.5a1 1 0 0 1 1-1Zm-3.006-2.013a1 1 0 0 1 .994.883l.006.117v6.5a2.5 2.5 0 0 1-2.335 2.495l-.165.006h-10a2.5 2.5 0 0 1-2.495-2.336l-.005-.164v-6.49a1 1 0 0 1 1.993-.116l.007.116v6.49a.5.5 0 0 0 .41.492l.09.008h10a.5.5 0 0 0 .492-.41l.008-.09v-6.501a1 1 0 0 1 1-1ZM6.292 5.793l3.498-3.5a1 1 0 0 1 1.32-.084l.094.084 3.502 3.5a1 1 0 0 1-1.319 1.497l-.094-.083-1.794-1.792v8.84a1 1 0 0 1-.883.993l-.116.007a1 1 0 0 1-.994-.883l-.006-.117V5.412L7.706 7.207a1 1 0 0 1-1.32.083l-.094-.083a1 1 0 0 1-.084-1.32l.083-.094 3.498-3.5-3.498 3.5Z"/></svg>
